X:42
T:Devil's Dream
S:John Moore's Book 1
Z:Transcribed by David Jacobs  April 2021
%%VWML: Moore1-4493-p26-0
F:http://www.vwml.org/record/Moore1/4493/p26
M:C
L:1/8
K:A
a2!trill!g2a2!trill!g2|agaf fedc|dfBf dfBf|dfBf gfge|a2!trill!g2!trill!a2g2|agaf fedc|fedc dcBA|E2!trill!B2A4:|
|:ceAe ceAe|ceAe fedc|dfBf dfBf|dfBf gedc|ceAe ceAe|ceAe fedc|fedc dcBA|E2G2A4:|]

